X: 1
T:Haver\"opolska e. Jonk Jonas
O:Sweden
D:Falun Spelmanslag - 'i st\"oten', AWCD-18
M:3/4
R:Polska
Q:1/4=136
K:Dmin
a2g2f2| e>f d<e ^c>e| d>e (3fed (3efg| (3:2a2e2^c2 A2-|\
A2 g2f2| e>f d<e ^c>e| d>e (3fed (3^c=Bc| d2 d4 :|
D2E2 F>G| (3ABA GA B2-|BA FA (3BAG| G<F D>F (3ED^C|\
D2E2 F>G| (3ABA GA B2-|BA FA (3BAG| G<F D4 :|
